public/svg/icon/gto.svg

<svg xmlns="http://www.w3.org/2000/svg" xmlns:xlink="http://www.w3.org/1999/xlink" width="32" height="32" viewBox="0 0 32 32"><defs><linearGradient id="gto-c" x1="50%" x2="50%" y1="0%" y2="100%"><stop offset="0%" stop-color="#FFF" stop-opacity=".5"/><stop offset="100%" stop-opacity=".5"/></linearGradient><circle id="gto-b" cx="16" cy="15" r="15"/><filter id="gto-a" width="111.7%" height="111.7%" x="-5.8%" y="-4.2%" filterUnits="objectBoundingBox"><feOffset dy=".5" in="SourceAlpha" result="shadowOffsetOuter1"/><feGaussianBlur in="shadowOffsetOuter1" result="shadowBlurOuter1" stdDeviation=".5"/><feComposite in="shadowBlurOuter1" in2="SourceAlpha" operator="out" result="shadowBlurOuter1"/><feColorMatrix in="shadowBlurOuter1" values="0 0 0 0 0 0 0 0 0 0 0 0 0 0 0 0 0 0 0.199473505 0"/></filter><path id="gto-e" d="M15.3761334,12.999082 L8.01871892,12.999082 L8.01871892,20.2218695 C8.01125645,20.9608611 8.30699564,21.6717195 8.83930762,22.1942912 C9.3716196,22.7168629 10.0957279,23.0071906 10.8484937,22.9998646 L15.3761334,22.9998646 L15.3761334,12.999082 Z M15.5465385,9.22100859 L16.3376381,9.22100859 C17.1223972,7.87169367 17.8401992,6.95341272 18.514551,6.45690339 C19.3466244,5.84426745 20.1991977,5.83876105 20.8672862,6.4946248 C21.4910331,7.10695825 21.6083123,7.87507451 21.1962803,8.61451722 C21.0813225,8.82082335 20.926479,9.02314993 20.7336473,9.22100859 L23.6417081,9.22100859 C24.3208541,9.22100859 25,9.77919181 25,10.5544463 C25,11.2211651 24.4314127,11.887884 23.6417081,11.887884 L16.5080433,11.887884 L16.5080433,10.109967 L15.3761334,10.109967 L15.3761334,11.887884 L8.3582919,11.887884 C7.67914595,11.887884 7,11.3297007 7,10.5544463 C7,9.88772743 7.56858731,9.22100859 8.3582919,9.22100859 L11.2975382,9.22100859 C11.0997733,9.03272928 10.9365476,8.84175219 10.8098982,8.64858923 C10.3225089,7.9052338 10.381657,7.1182346 11.0168904,6.4946248 C11.684979,5.83876105 12.5375523,5.84426745 13.3696256,6.45690339 C14.0439774,6.95341272 14.7617795,7.87169367 15.5465385,9.22100859 Z M14.2310283,9.22100859 C13.6517069,8.29819611 13.1327403,7.67148787 12.6904797,7.34586185 C12.2822101,7.04526261 12.0582251,7.04381599 11.8172716,7.28036049 C11.5702231,7.52288849 11.5545622,7.73126497 11.7616871,8.04716726 C11.9984022,8.40819998 12.4949293,8.81473099 13.2107853,9.22100859 L14.2310283,9.22100859 Z M17.6531484,9.22100859 L18.8738426,9.22100859 C19.5555478,8.82854951 20.0070115,8.4333909 20.2032373,8.08123928 C20.3726304,7.77724228 20.3372929,7.54580077 20.0669051,7.28036049 C19.8259515,7.04381599 19.6019666,7.04526261 19.193697,7.34586185 C18.7514364,7.67148787 18.2324697,8.29819611 17.6531484,9.22100859 Z M16.5080433,12.999082 L23.8654577,12.999082 L23.8654577,20.2218695 C23.8729202,20.9608611 23.577181,21.6717195 23.044869,22.1942912 C22.5125571,22.7168629 21.7884488,23.0071906 21.0356829,22.9998646 L16.5080433,22.9998646 L16.5080433,12.999082 Z"/><filter id="gto-d" width="119.4%" height="120.6%" x="-9.7%" y="-7.4%" filterUnits="objectBoundingBox"><feOffset dy=".5" in="SourceAlpha" result="shadowOffsetOuter1"/><feGaussianBlur in="shadowOffsetOuter1" result="shadowBlurOuter1" stdDeviation=".5"/><feColorMatrix in="shadowBlurOuter1" values="0 0 0 0 0 0 0 0 0 0 0 0 0 0 0 0 0 0 0.204257246 0"/></filter></defs><g fill="none" fill-rule="evenodd"><g fill-rule="nonzero"><use fill="#000" filter="url(#gto-a)" xlink:href="#gto-b"/><use fill="#7F27FF" fill-rule="evenodd" xlink:href="#gto-b"/><use fill="url(#gto-c)" fill-rule="evenodd" style="mix-blend-mode:soft-light" xlink:href="#gto-b"/><circle cx="16" cy="15" r="14.5" stroke="#000" stroke-opacity=".097"/></g><g fill-rule="nonzero"><use fill="#000" filter="url(#gto-d)" xlink:href="#gto-e"/><use fill="#FFF" fill-rule="evenodd" xlink:href="#gto-e"/></g></g></svg>

<svg xmlns="http://www.w3.org/2000/svg" xmlns:xlink="http://www.w3.org/1999/xlink" width="32" height="32" viewBox="0 0 32 32"><defs><filter id="a" width="111.7%" height="111.7%" x="-5.8%" y="-4.2%" filterUnits="objectBoundingBox"><feOffset dy=".5" in="SourceAlpha" result="shadowOffsetOuter1"/><feGaussianBlur in="shadowOffsetOuter1" result="shadowBlurOuter1" stdDeviation=".5"/><feComposite in="shadowBlurOuter1" in2="SourceAlpha" operator="out" result="shadowBlurOuter1"/><feColorMatrix in="shadowBlurOuter1" values="0 0 0 0 0 0 0 0 0 0 0 0 0 0 0 0 0 0 0.199473505 0"/></filter><filter id="d" width="119.4%" height="120.6%" x="-9.7%" y="-7.4%" filterUnits="objectBoundingBox"><feOffset dy=".5" in="SourceAlpha" result="shadowOffsetOuter1"/><feGaussianBlur in="shadowOffsetOuter1" result="shadowBlurOuter1" stdDeviation=".5"/><feColorMatrix in="shadowBlurOuter1" values="0 0 0 0 0 0 0 0 0 0 0 0 0 0 0 0 0 0 0.204257246 0"/></filter><linearGradient id="c" x1="50%" x2="50%" y1="0%" y2="100%"><stop offset="0%" stop-color="#FFF" stop-opacity=".5"/><stop offset="100%" stop-opacity=".5"/></linearGradient><circle id="b" cx="16" cy="15" r="15"/><path id="e" d="M15.376 13H8.02v7.222c-.008.739.288 1.45.82 1.972a2.83 2.83 0 002.01.806h4.527V13zm.17-3.779h.792c.784-1.35 1.502-2.268 2.177-2.764.832-.613 1.684-.618 2.352.038.624.612.741 1.38.33 2.12-.116.206-.27.408-.463.606h2.908c.679 0 1.358.558 1.358 1.333 0 .667-.569 1.334-1.358 1.334h-7.134V10.11h-1.132v1.778H8.358C7.68 11.888 7 11.33 7 10.554c0-.666.569-1.333 1.358-1.333h2.94a3.294 3.294 0 01-.488-.572c-.487-.744-.428-1.53.207-2.154.668-.656 1.52-.65 2.353-.038.674.496 1.392 1.415 2.177 2.764zm-1.315 0c-.58-.923-1.098-1.55-1.54-1.875-.409-.3-.633-.302-.874-.066-.247.243-.262.451-.055.767.236.361.733.768 1.449 1.174h1.02zm3.422 0h1.22c.683-.392 1.134-.788 1.33-1.14.17-.304.134-.535-.136-.8-.241-.237-.465-.236-.873.065-.443.325-.962.952-1.54 1.875zm-1.145 3.778h7.357v7.223a2.725 2.725 0 01-.82 1.972 2.83 2.83 0 01-2.01.806h-4.527V13z"/></defs><g fill="none"><use fill="#000" filter="url(#a)" xlink:href="#b"/><use fill="#7F27FF" fill-rule="evenodd" xlink:href="#b"/><use fill="url(#c)" fill-rule="evenodd" style="mix-blend-mode:soft-light" xlink:href="#b"/><circle cx="16" cy="15" r="14.5" stroke="#000" stroke-opacity=".097"/><use fill="#000" filter="url(#d)" xlink:href="#e"/><use fill="#FFF" fill-rule="evenodd" xlink:href="#e"/></g></svg>
